icons/moon-fog.svg

<svg width="24" height="24" viewBox="0 0 24 24" fill="none" xmlns="http://www.w3.org/2000/svg">
<path fill-rule="evenodd" clip-rule="evenodd" d="M11.4905 2.40382C11.7354 2.73367 11.7537 3.17981 11.5366 3.5286C10.7756 4.75078 10.4633 6.20395 10.655 7.63523C10.8466 9.06645 11.5298 10.3833 12.5839 11.3576C13.6379 12.3316 14.996 12.9018 16.422 12.9706C17.8479 13.0395 19.2536 12.6028 20.3947 11.735C20.716 11.4907 21.1528 11.4635 21.502 11.6661C21.8511 11.8688 22.0442 12.2615 21.9914 12.6618C21.7644 14.3834 21.0777 16.0114 20.0038 17.372C19.3093 18.2518 18.4697 18.9986 17.5256 19.5819C17.0558 19.8722 16.4396 19.7266 16.1493 19.2568C15.859 18.7869 16.0045 18.1707 16.4744 17.8804C17.2202 17.4196 17.8843 16.8292 18.434 16.1328C18.8277 15.634 19.1559 15.0894 19.4127 14.5128C18.43 14.8616 17.3823 15.0193 16.3255 14.9683C14.4284 14.8767 12.6242 14.1182 11.2264 12.8263C9.82883 11.5346 8.92586 9.79152 8.67266 7.90068C8.53127 6.84485 8.59737 5.77962 8.85868 4.76308C8.22141 5.12248 7.63625 5.57508 7.12339 6.10909C6.26742 7.00036 5.64184 8.08827 5.29939 9.2769C5.14649 9.8076 4.59232 10.1139 4.06163 9.96097C3.53093 9.80807 3.22466 9.25391 3.37756 8.72321C3.80947 7.22406 4.59892 5.85033 5.6809 4.72373C6.881 3.47414 8.39601 2.57547 10.0647 2.12451C10.1048 2.11367 10.1454 2.1054 10.1861 2.09966L10.427 2.03462C10.8237 1.92753 11.2455 2.07396 11.4905 2.40382ZM4 13.0001C4 12.4478 4.44772 12.0001 5 12.0001H9C9.55228 12.0001 10 12.4478 10 13.0001C10 13.5523 9.55228 14.0001 9 14.0001H5C4.44772 14.0001 4 13.5523 4 13.0001ZM2 17.0001C2 16.4478 2.44772 16.0001 3 16.0001H11C11.5523 16.0001 12 16.4478 12 17.0001C12 17.5523 11.5523 18.0001 11 18.0001H3C2.44772 18.0001 2 17.5523 2 17.0001ZM7 21.0001C7 20.4478 7.44772 20.0001 8 20.0001H13C13.5523 20.0001 14 20.4478 14 21.0001C14 21.5523 13.5523 22.0001 13 22.0001H8C7.44772 22.0001 7 21.5523 7 21.0001Z" fill="black"/>
</svg>

<svg
  width="24"
  height="24"
  viewBox="0 0 24 24"
  xmlns="http://www.w3.org/2000/svg"
>
  <path
    fill-rule="evenodd"
    clip-rule="evenodd"
    d="M11.49 2.404a1 1 0 0 1 .047 1.125 6.212 6.212 0 0 0 1.047 7.829 6.077 6.077 0 0 0 7.81.377 1 1 0 0 1 1.597.927 9.636 9.636 0 0 1-1.987 4.71 9.559 9.559 0 0 1-2.478 2.21 1 1 0 1 1-1.052-1.702 7.559 7.559 0 0 0 2.939-3.367 8.065 8.065 0 0 1-3.087.455 8.087 8.087 0 0 1-5.1-2.142 8.186 8.186 0 0 1-2.553-4.925 8.22 8.22 0 0 1 .186-3.138A7.545 7.545 0 0 0 7.123 6.11 7.617 7.617 0 0 0 5.3 9.277a1 1 0 1 1-1.921-.554 9.617 9.617 0 0 1 2.303-4 9.524 9.524 0 0 1 4.384-2.598c.04-.011.08-.02.121-.025l.241-.065a1 1 0 0 1 1.064.369zM4 13a1 1 0 0 1 1-1h4a1 1 0 1 1 0 2H5a1 1 0 0 1-1-1zm-2 4a1 1 0 0 1 1-1h8a1 1 0 1 1 0 2H3a1 1 0 0 1-1-1zm5 4a1 1 0 0 1 1-1h5a1 1 0 1 1 0 2H8a1 1 0 0 1-1-1z"
  />
</svg>
